X:1
T:I Find Thee So Precious
T:James McGranahan
T:I Find Thee So Precious
T:Public Domain
T:Public Domain
T:Public Domain
C:James McGranahan
Z:Public Domain
%%score ( 1 2 ) ( 3 4 )
L:1/8
M:4/4
K:F
V:1 treble 
V:2 treble 
V:3 bass 
V:4 bass 
V:1
 C | A2 GF F2 EF | G2 DE F3 C | c2 BA A2 | GF | (z G/F/) EF G3 ^G | A2 GF B2 AG | %7
w: 1.~O|what are the plea- sures that|sil- ver can buy? They|come and they go,|but can-|* * not sa- tis- fy;|* praised be the Sav- ior!|
w: 2.~I|care not if all the proud|world turn a- way, The|plau- dits of men|on- ly|* * last for a day;|* frowns do not fright- en,|
w: 3.~As|well in the cot- tage as|un- der the dome, Be-|side my own cot,|or wher-|* * ev- er I roam;|* ho- ney from Heav- en|
 c2 BA [Bd]3 [df] | [ce]2 [Bd][Ac] [Bc]2 EG | G4 F2 z ||"^Refrain" [FA] | %11
w: I cease not to cry,|I find Thee so pre- cious,|my Sav-|ior!|
w: or cause me dis- may,|I find Thee so pre- cious,|my Sav-|ior!|
w: still drips from the comb;|I find Thee so pre- cious,|my Sav-|ior!|
 [FA]2 [GB][Ac] [ce]2 [Bd][Ac] | ([Ac][GB])[DF][EG] [FA]2 [FA]>[FA] | %13
w: ||
w: O sweet- er and sweet- er,|as * day fol- lows day, As|
w: ||
 [EA]2 [G=B][G^c] [Fd]2 [Fd][Af] | ([Af][Ge]) [Ge]>[Fd] [Ec]2 [Ec][GB] | %15
w: ||
w: the gold of the morn- ing|breaks * forth through the gray; As|
w: ||
 [FA]2 [EG]F [EB]2 [EA][EG] | [Fc]2 [FB][FA] [Fd]3 [^Gf] | [Ae]2 [Fd][Fc] [Ec]2 [CE][CG] | %18
w: |||
w: I lift up my soul, as|praise and I pray, I|find Thee more pre- cious, my|
w: |||
 [CG]4 [CF]3 |] %19
w: |
w: Sav- ior!|
w: |
V:2
 x | x8 | x8 | x6 | x2 | F2 x6 | x8 | x8 | x8 | x7 || x | x8 | x8 | x8 | x8 | x3 F x4 | x8 | x8 | %18
w: |||||But|||||||||||||
w: |||||Their||||||||||I|||
w: |||||The|||||||||||||
 x7 |] %19
w: |
w: |
w: |
V:3
 A, | ([F,,F,]C,)[C,B,][C,B,] ([F,,F,]C,)[C,G,][C,A,] | %2
 (C,[E,G,])[E,G,B,][E,G,B,] ([F,,F,][C,F,][C,F,])[C,F,A,] | ([F,,F,]F,)[F,D][F,C] ([F,,F,]F,) | %4
 [F,B,][F,A,] | (z B,/A,/) G,A, [C,E,G,B,]3 =B, | [F,,F,]F,[F,B,][F,A,] ([F,,F,]F,)[F,C][F,B,] | %7
 [A,,F,A,][F,A,C][F,A,_E][F,A,E] ([B,,B,][D,F,][D,F,])[D,F,B,F] | %8
 (C,[E,G,])[E,G,D][E,G,C] [C,E,G,C]2 CB, | [C,E,B,]4 [F,,C,A,]2 z || [F,C] | %11
 [F,C]2 [F,F][F,F] [^F,A,]2 [F,D][F,D] | [G,D]2 [C,B,][C,B,] (A,<C) [D,D]>[D,D] | %13
 [A,^C]2 [A,E]A, [D,A,]2 [D,A,][D,D] | [G,C]2 [G,=B,]>[G,B,] [C,_B,]2 [C,G,][C,C] | %15
 [F,C]2 [B,C][A,C] [G,C]2 [C,C][B,C] | [A,C]2 [G,C][F,C] [B,,B,]3 [=B,,D] | %17
 [C,C]2 [C,B,][C,A,] [C,G,]2 [C,G,][C,B,] | [C,B,]4 [F,A,]3 |] %19
V:4
 x | C2 A,2 x4 | B,2 A,3 x3 | A,2 C2 x2 | x2 | [F,A,]2 x6 | C2 D2 x4 | x3 D3 x2 | %8
 [B,E]2 x3 [C,E,G,]2 x | x7 || x | x8 | x4 F,2 x2 | x3 A, x4 | x8 | x8 | x8 | x8 | x7 |] %19

